X:1
T:15
L:1/8
M:2/4
K:Emin
V:1 treble nm="Piano" snm="Pno."
V:1
 d/^c/B- B/^A/B/F/ | z e- e/^c/d/^A/ | B>G F/^E/F/=E/ | D>^D (3EG^C | ^A, B,2 D/F/ | %5
 fe- e/^d/=d/^c/ | =c/B/ G2 E/^c/ | (3dB^A (3B=AG | (3F=FE G>g | e/^d/e- e/B/f/=f/ | e3 ^c/^A/ | %11
 B>G F^D | E3 B/g/- | g/f/e/^c/ F>d | z e/^c/- (3c^AF | ^E/F/ B3 |] %16

